src/assets/duotone/RotateRight.svg

<?xml version="1.0" encoding="UTF-8"?>
<svg width="24" height="24" viewBox="0 0 24 24" xmlns="http://www.w3.org/2000/svg">
 <path d="M16.75 22H12.25C8.5 22 7 20.5 7 16.75V12.25C7 8.5 8.5 7 12.25 7H16.75C20.5 7 22 8.5 22 12.25V16.75C22 20.5 20.5 22 16.75 22Z" opacity=".4"/>
 <path d="m2.75 10.5c0.41 0 0.75-0.34 0.75-0.75 0-2.96 2.06-5.44 4.83-6.09l-0.27 0.45c-0.21 0.36-0.1 0.82 0.26 1.03s0.82 0.1 1.03-0.26l1.05-1.75c0.14-0.23 0.14-0.52 0.01-0.75-0.14-0.23-0.39-0.38-0.66-0.38-4.27 0-7.75 3.48-7.75 7.75 0 0.41 0.34 0.75 0.75 0.75z"/>
</svg>

<svg width="24" height="24" viewBox="0 0 24 24"  xmlns="http://www.w3.org/2000/svg">
<path opacity="0.4" d="M16.75 22H12.25C8.5 22 7 20.5 7 16.75V12.25C7 8.5 8.5 7 12.25 7H16.75C20.5 7 22 8.5 22 12.25V16.75C22 20.5 20.5 22 16.75 22Z" />
<path d="M2.75 10.5C3.16 10.5 3.5 10.16 3.5 9.75C3.5 6.79 5.56 4.31 8.33 3.66L8.06 4.11C7.85 4.47 7.96 4.93 8.32 5.14C8.68 5.35 9.14 5.24 9.35 4.88L10.4 3.13C10.54 2.9 10.54 2.61 10.41 2.38C10.27 2.15 10.02 2 9.75 2C5.48 2 2 5.48 2 9.75C2 10.16 2.34 10.5 2.75 10.5Z" />
</svg>
